!!!!SEGMENT: T708_Cop-w10p19h13m1-4.krn
!!!COM: Copland, Aaron
!!!OTL: Movement 1
!!!AGN: Orchestral
!!!AGN-sub: Symphonic
!!!CNT: American
!!!ODT: 1933
!!!OPR: Short Symphony (Symphony No. 2)
!!!filename: T708_Cop-w10p19h13m1-4.krn
**kern	**dynam	**kern	**dynam	**kern	**dynam	**kern	**dynam	**kern	**dynam	**kern	**dynam	**kern	**dynam	**kern	**dynam	**kern	**dynam	**kern	**dynam	**kern	**dynam
*grp:A	*	*grp:A	*	*grp:B	*	*grp:B	*	*grp:A	*	*grp:B	*	*grp:B	*	*grp:A	*	*grp:A	*	*grp:A	*	*grp:A	*
*part11	*	*part10	*	*part9	*	*part8	*	*part7	*	*part6	*	*part5	*	*part4	*	*part3	*	*part2	*	*part1	*
*staff11	*	*staff10	*	*staff9	*	*staff8	*	*staff7	*	*staff6	*	*staff5	*	*staff4	*	*staff3	*	*staff2	*	*staff1	*
*ICstr	*	*ICstr	*	*ICbras	*	*ICbras	*	*ICbras	*	*ICbras	*	*ICww	*	*ICww	*	*ICww	*	*ICww	*	*ICww	*
*Iviola	*	*Ivioln	*	*Itromp	*	*Itromp	*	*Icor	*	*Icor	*	*Iclars	*	*Iclars	*	*Iflt	*	*Iflt	*	*Ipicco	*
*I"Viola	*	*I"Violin I	*	*I"Trumpet in C II.	*	*I"Trumpet in C I.	*	*I"Horn in F III. IV.	*	*I"Horn in F I. II.	*	*I"Clarinet in Bb II.	*	*I"Clarinet in Bb I.	*	*I"Flute II.	*	*I"Flute I.	*	*I"Piccolo	*
*I'Vla.	*	*I'Vln. I	*	*I'C Tpt. II.	*	*I'C Tpt. I.	*	*I'Hn. III. IV.	*	*I'Hn. I. II.	*	*I'Cl. II	*	*I'Cl. I	*	*I'Fl. II	*	*I'Fl. I	*	*I'Picc.	*
*clefC3	*	*clefG2	*	*clefG2	*	*clefG2	*	*clefG2	*	*clefG2	*	*clefG2	*	*clefG2	*	*clefG2	*	*clefG2	*	*clefG2	*
*	*	*	*	*	*	*	*	*ITrd4c7	*	*ITrd4c7	*	*ITrd1c2	*	*ITrd1c2	*	*	*	*	*	*ITrd-7c-12	*
*k[]	*	*k[]	*	*k[]	*	*k[]	*	*k[b-]	*	*k[b-]	*	*k[b-e-]	*	*k[b-e-]	*	*k[]	*	*k[]	*	*k[]	*
*	*	*	*	*	*	*	*	*	*	*	*	*	*	*	*	*	*	*	*	*	*
*M5/4	*	*M5/4	*	*M5/4	*	*M5/4	*	*M5/4	*	*M5/4	*	*M5/4	*	*M5/4	*	*M5/4	*	*M5/4	*	*M5/4	*
=1	=1	=1	=1	=1	=1	=1	=1	=1	=1	=1	=1	=1	=1	=1	=1	=1	=1	=1	=1	=1	=1
!	!	!	!	!	!	!	!	!LO:TX:a:t=con sord.	!	!	!	!	!	!	!	!	!	!	!	!LO:TX:t=[[quarter]=144]	!
4%5r	.	2r	.	8e-X^	sf	8c^	sf	[2c [2e-X	f pp	4%5r	.	4%5r	.	4%5r	.	4r	.	8c~L	p	2r	.
.	.	.	.	8r	.	8r	.	.	.	.	.	.	.	.	.	.	.	8cJ	.	.	.
.	.	.	.	4r	.	4r	.	.	.	.	.	.	.	.	.	8r	.	8cL	.	.	.
!	!	!LO:TX:a:t=arco	!	!	!	!	!	!	!	!	!	!	!	!	!	!	!	!	!	!	!
!	!	!LO:TX:a:t=4 Soli	!	!	!	!	!	!	!	!	!	!	!	!	!	!	!	!	!	!	!
.	.	.	.	.	.	.	.	.	.	.	.	.	.	.	.	[8cc~	p	[8cc~J	.	.	.
=-	=-	=:	=:	=:	=:	=:	=:	=:	=:	=:	=-	=-	=-	=-	=-	=:	=:	=:	=:	=:	=:
!	!	!	!LO:DY:ed=brack	!	!	!	!	!	!	!	!	!	!	!	!	!	!	!	!	!LO:TX:a:rj:t=Solo	!LO:DY:t=%s dolce, espress.
.	.	[2eee-X	f	4r	.	4r	.	2.c_ 2.e-_	.	.	.	.	.	.	.	2.cc]	.	8ccL]	.	[2eee-X	p
.	.	.	.	.	.	.	.	.	.	.	.	.	.	.	.	.	.	8cJ	.	.	.
.	.	.	.	2r	.	2r	.	.	.	.	.	.	.	.	.	.	.	4e-X	.	.	.
.	.	8eee-L]	.	.	.	.	.	.	.	.	.	.	.	.	.	.	.	[4b-X	.	8eee-L]	.
.	.	[8cccc~J	.	.	.	.	.	.	.	.	.	.	.	.	.	.	.	.	.	[8cccc~J	.
*clefG2	*	*	*	*	*	*	*	*	*	*	*	*	*	*	*	*	*	*	*	*	*
=2	=2	=2	=2	=2	=2	=2	=2	=2	=2	=2	=2	=2	=2	=2	=2	=2	=2	=2	=2	=2	=2
2r	.	2cccc]	.	4%5r	.	4%5r	.	2c_ 2e-_	.	4%5r	.	2r	.	2r	.	8c	.	2b-_	.	2cccc]	.
.	.	.	.	.	.	.	.	.	.	.	.	.	.	.	.	4e-X	.	.	.	.	.
.	.	.	.	.	.	.	.	.	.	.	.	.	.	.	.	[8cc	.	.	.	.	.
=:	=:	=:	=:	=:	=:	=:	=:	=:	=:	=-	=-	=:	=:	=:	=-	=:	=:	=:	=:	=:	=:
!	!	!	!LO:DY:t=%s dolce, espress.	!	!	!	!	!	!	!	!	!	!	!	!	!	!	!	!	!	!
4r	.	[2eee-X	p	.	.	.	.	2.c_ 2.e-_	.	.	.	8r	.	4r	.	2.cc_	.	2.b-]	.	[2eee-X~	.
.	.	.	.	.	.	.	.	.	.	.	.	8c~L	p	.	.	.	.	.	.	.	.
!LO:TX:rj:t=arco	!	!	!	!	!	!	!	!	!	!	!	!	!	!	!	!	!	!	!	!	!
!LO:TX:a:rj:t=4 Soli	!	!	!	!	!	!	!	!	!	!	!	!	!	!LO:TX:rj:t=Solo	!	!	!	!	!	!	!
8r	.	.	.	.	.	.	.	.	.	.	.	8c	.	8r	.	.	.	.	.	.	.
! 	!LO:DY:t=%s dolce, espress.	!	!	!	!	!	!	!	!	!	!	!	!	!	!LO:DY:t=%s dolce, espress.	!	!	!	!	!	!
[4.gg	p	.	.	.	.	.	.	.	.	.	.	8cJ	.	[4.gg~	p	.	.	.	.	.	.
.	.	8eee-L]	.	.	.	.	.	.	.	.	.	[4cc~	.	.	.	.	.	.	.	8eee-L]	.
.	.	[8ccc~J	.	.	.	.	.	.	.	.	.	.	.	.	.	.	.	.	.	[8ccc~J	.
=3	=3	=3	=3	=3	=3	=3	=3	=3	=3	=3	=3	=3	=3	=3	=3	=3	=3	=3	=3	=3	=3
4gg]	.	2ccc]	.	4%5r	.	4r	.	2c_ 2e-_	.	4%5r	.	2cc_	.	4gg]	.	4.cc]	.	8c	.	2ccc]	.
.	.	.	.	.	.	.	.	.	.	.	.	.	.	.	.	.	.	4e-X	.	.	.
[4eee-X~	.	.	.	.	.	8r	.	.	.	.	.	.	.	[4eee-~	.	.	.	.	.	.	.
!	!	!	!	!	!	!LO:TX:a:t=con sord.	!	!	!	!	!	!	!	!	!	!	!	!	!	!	!
.	.	.	.	.	.	8c~L	p	.	.	.	.	.	.	.	.	8r	.	[8b-X	.	.	.
=:	=:	=:	=:	=:	=:	=:	=:	=:	=:	=-	=-	=:	=:	=:	=-	=:	=:	=:	=:	=:	=:
4.eee-]	.	[2aaa-X~	.	.	.	8c	.	2.c_ 2.e-_	.	.	.	2.cc]	.	4.eee-]	.	8r	.	2.b-]	.	[2aaa-X	.
.	.	.	.	.	.	8cJ	.	.	.	.	.	.	.	.	.	8c	.	.	.	.	.
.	.	.	.	.	.	4cc~	.	.	.	.	.	.	.	.	.	4e-X	.	.	.	.	.
[4.gg~	.	.	.	.	.	.	.	.	.	.	.	.	.	[4.gg~	.	.	.	.	.	.	.
.	.	8aaa-L]	.	.	.	8cL	.	.	.	.	.	.	.	.	.	[8ccL	.	.	.	8aaa-L]	.
.	.	[8aa-X~J	.	.	.	[8e-XJ	.	.	.	.	.	.	.	.	.	8ccJ_	.	.	.	[8aa-X~J	.
=4	=4	=4	=4	=4	=4	=4	=4	=4	=4	=4	=4	=4	=4	=4	=4	=4	=4	=4	=4	=4	=4
4gg]	.	2aa-_	.	4%5r	.	8e-]	.	4c] 4e-]	.	2r	.	4%5r	.	4gg]	.	2cc_	.	8cL	.	2aa-_	.
.	.	.	.	.	.	[4.b-X	.	.	.	.	.	.	.	.	.	.	.	8cJ	.	.	.
[4ee-X~	.	.	.	.	.	.	.	4r	.	.	.	.	.	[4.ee-~	.	.	.	8cL	.	.	.
.	.	.	.	.	.	.	.	.	.	.	.	.	.	.	.	.	.	[8ccJ	.	.	.
=:	=:	=:	=:	=-	=-	=:	=:	=:	=:	=:	=:	=:	=:	=:	=-	=:	=:	=:	=:	=:	=:
4.ee-]	.	2.aa-]	.	.	.	2.b-_	.	4r	.	4r	.	.	.	.	.	2.cc]	.	8ccL]	.	2.aa-]	.
.	.	.	.	.	.	.	.	.	.	.	.	.	.	4ee-]	.	.	.	8cJ	.	.	.
.	.	.	.	.	.	.	.	2r	.	4r	.	.	.	.	.	.	.	4e-X	.	.	.
[4.ccc~	.	.	.	.	.	.	.	.	.	.	.	.	.	[4.ccc~	.	.	.	.	.	.	.
!	!	!	!	!	!	!	!	!	!	!	!LO:DY:a	!	!	!	!	!	!	!	!	!	!
.	.	.	.	.	.	.	.	.	.	8c~>L	p	.	.	.	.	.	.	[4b-X	.	.	.
.	.	.	.	.	.	.	.	.	.	8cJ	.	.	.	.	.	.	.	.	.	.	.
=||	=||	=||	=||	=||	=||	=||	=||	=||	=||	=||	=||	=||	=||	=||	=||	=||	=||	=||	=||	=||	=||
*-	*-	*-	*-	*-	*-	*-	*-	*-	*-	*-	*-	*-	*-	*-	*-	*-	*-	*-	*-	*-	*-
!!!system-decoration: [(s1,s2,s3,s4,s5)][(s6,s7,s8,s9)][(s10,s11)]
!!!RDF**kern: > = above
!!!EED: Rafael Laurindo
!!!EEV: 2021/09/20
!!!EED2: Gabriella Vici
!!!Suter_Work_ID: Cop-10
!!!Suter_Example_Number: 708
!!!Suter_Example_ID: Cop-10/19/[13]1-4
!!!Premiere_Location: Mexico City,Mexico
!!!Other_Tsigs: none
!!!Full_Unit_Duration: 4:27
!!!First_Publication_Year: 1955
!!!First_Public_Performance_Year: 1934
!!!Example_Total_Measures: 4
!!!Example_Timestamp_Duration: 8
!!!Example_Start_Tsig_Type: unequal duple
!!!Example_Start_Tsig_Mean_Beat_Rate: 144
!!!Example_Start_Tsig_Beat_Rate: 144
!!!Example_Start_Tsig_Beat: quarter
!!!Example_Start_Tsig: 5/4
!!!Example_Start_Timestamp: 3:03
!!!Example_Start_Tempo_Expression: none
!!!Example_Start_Notated_Beat_Rate: [144]
!!!Example_Start_Notated_Beat: [quarter]
!!!Example_Start_Measure: 125
!!!Example_Metadata_Validated: Y
!!!Example_End_Timestamp: 3:11
!!!Example_End_Measure: 128
!!!Example_Dataset: T
!!!Editorial_Comments: Example Start Notated Beat and Example Start Notated Beat Rate [quarter=144] based on most recent notated beat rate (SWFU, m. 1).
!!!Death_Place: North Tarrytown,United States
!!!Death_Date: 2-Dec-1990
!!!Changing_Tsig: no
!!!Birth_Place: Brooklyn,United States
!!!Birth_Date: 14-Nov-1900
!!!Audio_Example_Quarter_Note_Tempo:
!!!Audio_Example_Duration:
!!!EEV2: 2022/03/01
